Catalina-dark/actions/22/embosstool.svg

<svg viewBox="0 0 22 22" xmlns="http://www.w3.org/2000/svg">
<defs>
<style id="current-color-scheme" type="text/css">.ColorScheme-Text {
        color:#dedede;
      }</style>
</defs>
<path class="ColorScheme-Text" d="m4 4v14h14v-14h-14zm1 1h12v12h-12v-12zm3 3v6h6v-6h-6zm1 1h4v4h-4v-4z" fill="currentColor"/>
<path class="ColorScheme-Text" d="m3 3v1 14 1h15 1v-1-14-1h-1-14-1zm1 1h14v14h-14v-14zm3 3v1 6 1h8v-1-6-1h-1-6-1zm1 1h6v6h-6v-6z" fill="currentColor" fill-opacity=".5"/>
</svg>

<svg xmlns="http://www.w3.org/2000/svg" viewBox="0 0 22 22">
  <defs id="defs3051">
    <style type="text/css" id="current-color-scheme">
      .ColorScheme-Text {
        color:#f2f2f2;
      }
      </style>
  </defs>
 <path 
     style="fill:currentColor;fill-opacity:1;stroke:none" 
     d="M 4 4 L 4 18 L 18 18 L 18 4 L 4 4 z M 5 5 L 17 5 L 17 17 L 5 17 L 5 5 z M 8 8 L 8 14 L 14 14 L 14 8 L 8 8 z M 9 9 L 13 9 L 13 13 L 9 13 L 9 9 z "
     class="ColorScheme-Text"
     />
 <path 
     style="fill:currentColor;fill-opacity:0.5;stroke:none" 
     d="M 3 3 L 3 4 L 3 18 L 3 19 L 18 19 L 19 19 L 19 18 L 19 4 L 19 3 L 18 3 L 4 3 L 3 3 z M 4 4 L 18 4 L 18 18 L 4 18 L 4 4 z M 7 7 L 7 8 L 7 14 L 7 15 L 15 15 L 15 14 L 15 8 L 15 7 L 14 7 L 8 7 L 7 7 z M 8 8 L 14 8 L 14 14 L 8 14 L 8 8 z "
     class="ColorScheme-Text"
     />
</svg>
